X: 68
T:Briuletul
O:Romania
F: http://www.youtube.com/watch?v=ee8WN_27U1I
S:Presented by Mihai and Alexandru David, Romanian Tour '77
L:1/8
M:2/4
Q:1/4=160
I:Set accompaniment to plucked double bass, piano or equivalent
K:D
%%MIDI gchord fzfz
|: "A"E A2 c     | EAcz        | f/e/^d f/e/^d | e2 c2     :|\
|: "A"E A2 c     | EAcz        | f/e/^d f/e/^d | e2 c2     :|
|: "A"c/d/e g/f/e| g/f/e  c/d/e| g/f/e g/f/e   | c2 c2     :|
|: "A"c/d/e g/f/e| g/f/e  c/d/e| g/f/e g/f/e   | c2 c2     :|
|: "Em"B2 f2     | e/^d/ef2    | g/f/e "Cm"^d=c| "Em"B2B2  |\
   "Em"B2 f2     | e/^d/ef2    | g/f/e "Cm"^d=c| "Em"B2B2  :|
|: "A"A2 "Em"B2  |"A"A2 "Em"B2 |"A"A4          |"A"A4      :|



